images/ico_twt.svg

<svg width="28" height="23" viewBox="0 0 28 23" fill="none" xmlns="http://www.w3.org/2000/svg">
<path fill-rule="evenodd" clip-rule="evenodd" d="M25.1366 5.72586C25.1476 5.97587 25.1537 6.22792 25.1537 6.47996C25.1537 14.1541 19.3765 23 8.80649 23C5.56199 23 2.54171 22.0416 0 20.3932C0.449424 20.447 0.906891 20.4745 1.37039 20.4745C4.06291 20.4745 6.53927 19.5456 8.50587 17.9886C5.99232 17.9419 3.86987 16.2629 3.13893 13.9549C3.48881 14.022 3.84976 14.0596 4.21875 14.0596C4.74258 14.0596 5.25132 13.9905 5.73292 13.8573C3.10474 13.3248 1.12507 10.9781 1.12507 8.16296C1.12507 8.13857 1.12507 8.11316 1.12607 8.08979C1.90025 8.52375 2.78602 8.78596 3.7271 8.81543C2.18679 7.77575 1.17232 5.99722 1.17232 3.9829C1.17232 2.91781 1.45485 1.9198 1.94951 1.06204C4.78179 4.57642 9.01662 6.8875 13.7904 7.13141C13.6918 6.70558 13.6426 6.26349 13.6426 5.80717C13.6426 2.60072 16.2144 0 19.3865 0C21.0395 0 22.5305 0.705316 23.5802 1.83341C24.8902 1.57324 26.1168 1.09151 27.2298 0.423799C26.7975 1.78057 25.8896 2.91781 24.7002 3.63736C25.8635 3.49711 26.9735 3.18612 28 2.7237C27.2339 3.88635 26.2596 4.90977 25.1366 5.72586Z" fill="white"/>
</svg>

<svg width="28" height="23" fill="none" xmlns="http://www.w3.org/2000/svg"><path fill-rule="evenodd" clip-rule="evenodd" d="M25.137 5.726c.01.25.017.502.017.754 0 7.674-5.777 16.52-16.348 16.52A16.12 16.12 0 010 20.393c.45.054.907.081 1.37.081 2.693 0 5.17-.928 7.136-2.485-2.514-.047-4.636-1.726-5.367-4.034a5.729 5.729 0 002.594-.098c-2.628-.532-4.608-2.879-4.608-5.694l.001-.073c.774.434 1.66.696 2.601.725a5.82 5.82 0 01-2.555-4.832c0-1.065.283-2.063.778-2.921 2.832 3.514 7.067 5.825 11.84 6.07a5.856 5.856 0 01-.147-1.325C13.643 2.601 16.214 0 19.387 0c1.652 0 3.143.705 4.193 1.833 1.31-.26 2.537-.741 3.65-1.41a5.822 5.822 0 01-2.53 3.214 11.326 11.326 0 003.3-.913 11.627 11.627 0 01-2.863 3.002z" fill="#fff"/></svg>
